X: 27282
T: Miss Thornton's
R: reel
M: 4/4
K: Cdorian
K: Bbmaj
|:B,2 DF BFDF|EDCD EGFE|~D2 ~C2 B,DFB|GECA, B,A,G,A,|
B,C DF BFDF|EDCD EGFE|~D2 ~C2 B,DFB|1 GBAc B~B,3:|2 GBAc B2 Bc||
|:dB ~B2 dBcB|GBFB GBFB|dB ~B2 dBGF|GBAc BABc|
dB ~B2 dBGF|GBFB GBFB|dBcA BAGF|1 GBAc BABc:|2 GBAc BGFD||

